X: 119
T: REEL: Shaskeen
C: C: Trad.; S: Shaskeen
C: Set Leaders: Mars, Anton
Z: Anton Zille ed.; DanG at The Session
N: https://thesession.org/members/26966/sets/94278
R: Reel
M: 4/4
L: 1/8
Q: 1/2=100
K: Gmaj
|:DG~G2 ABcA|dfed cAAc|~B3G ~A3F|GBAG FGEF|
DG~G2 ABcA|dfed cAAe|~f3g fdcA|1 AGFA G2 GF:|2 AGFA G2B||
dggf g2 fg|abag fddc|~B3G ~A3F|GBAG FD D2|
dggf g2 fg|abag fdde|fd~d2 edcA|AGFA G3B|
dggf ~g2 fg|~a3g fddc|~B2 GB ~A2 FA|GBAG FD D2|
BG~G2 AF~F2|dB~B2 cA~A2|fd~d2 edcA|AGFA G4||

